src/icons/files/deno.svg

<svg width="24" height="24" viewBox="0 0 24 24" fill="none" xmlns="http://www.w3.org/2000/svg">
<path fill-rule="evenodd" clip-rule="evenodd" d="M19.0711 4.92893C17.1957 3.05357 14.6522 2 12 2C9.34784 2 6.8043 3.05357 4.92893 4.92893C3.05357 6.8043 2 9.34784 2 12C2 14.6522 3.05357 17.1957 4.92893 19.0711C6.8043 20.9464 9.34784 22 12 22C14.6522 22 17.1957 20.9464 19.0711 19.0711C20.9464 17.1957 22 14.6522 22 12C22 9.34784 20.9464 6.8043 19.0711 4.92893ZM6.41406 5.6914C6.48828 5.4414 6.75391 5.29296 7.00781 5.35936C7.26562 5.42968 7.41797 5.6914 7.35547 5.9453L7.35156 5.96093L6.6875 8.42187L6.68359 8.43358C6.64623 8.55477 6.56319 8.65667 6.45203 8.71771C6.34087 8.77876 6.21033 8.79416 6.08801 8.76067C5.9657 8.72717 5.86122 8.6474 5.79668 8.53824C5.73213 8.42908 5.71259 8.29909 5.74219 8.17577L5.74609 8.16405L6.41016 5.70311L6.41406 5.6914ZM14.9453 6.15624C15.0195 5.90624 15.2852 5.7578 15.543 5.82421C15.7969 5.89452 15.9492 6.15624 15.8867 6.41405V6.42577L15.3633 8.35936L15.3203 8.32421C15.0608 8.13359 14.785 7.96627 14.4961 7.82421L14.9414 6.16796L14.9453 6.15624ZM10.2695 3.18358C10.5769 3.12313 10.8872 3.0788 11.1992 3.05077C11.2146 3.12303 11.2133 3.19786 11.1953 3.26952L11.1914 3.28124L10.5273 5.74218L10.5234 5.7539C10.4843 5.87238 10.4012 5.97138 10.2914 6.03056C10.1815 6.08974 10.0532 6.10461 9.93267 6.07211C9.81218 6.03962 9.70871 5.96222 9.6435 5.85582C9.57829 5.74943 9.5563 5.6221 9.58203 5.49999L9.58594 5.48827L10.2031 3.1953L10.2695 3.18358ZM17.1797 5.23436L17.3086 4.74999L17.3672 4.79296C17.6354 4.99337 17.8924 5.20855 18.1367 5.43749L18.1211 5.48827L18.1172 5.49999C18.078 5.61848 17.995 5.71748 17.8851 5.77666C17.7753 5.83583 17.6469 5.8507 17.5264 5.81821C17.4059 5.78571 17.3025 5.70832 17.2373 5.60192C17.172 5.49552 17.15 5.36819 17.1758 5.24608L17.1797 5.23436ZM13.2109 4.0039L13.4453 3.1328L13.5156 3.14452C13.813 3.19468 14.1077 3.25986 14.3984 3.33983L14.1523 4.2578L14.1484 4.26952C14.1093 4.38801 14.0262 4.48701 13.9164 4.54619C13.8065 4.60537 13.6782 4.62023 13.5577 4.58774C13.4372 4.55524 13.3337 4.47785 13.2685 4.37145C13.2033 4.26505 13.1813 4.13772 13.207 4.01561L13.2109 4.0039ZM6.4375 11.7695C6.4375 9.49218 8.70312 7.66015 11.6094 7.66015C13.0078 7.66015 14.207 8.04686 15.1523 8.78515C15.957 9.41405 16.5469 10.2812 16.8516 11.2617L16.8594 11.2851L16.8672 11.3125L16.8828 11.3633L16.9063 11.457L16.9688 11.6758L17.0352 11.9258L17.3281 12.9961L18.6719 18.0156L18.6289 18.0625C17.2383 19.582 15.332 20.6211 13.1875 20.9062L13.168 20.7773L13.1328 20.5195L13.1016 20.332L13.0664 20.0859L13.0195 19.7851L13 19.668L12.957 19.3828L12.9297 19.2148L12.8945 18.9961L12.8594 18.7851L12.8242 18.582L12.7891 18.3828L12.7578 18.1875L12.7227 18L12.6914 17.8203L12.668 17.6875L12.6406 17.5586L12.5938 17.3125L12.5703 17.1953L12.543 17.0508L12.5195 16.9492L12.5 16.8516L12.4805 16.7578L12.4687 16.6953L12.4414 16.5781L12.4023 16.4062L12.3867 16.3516L12.3672 16.2734L12.3516 16.1992L12.332 16.125L12.3125 16.0547L12.3008 16.0117L12.2813 15.9453L12.2656 15.8828L12.2539 15.8398L12.2383 15.8008L12.2266 15.7656L12.2109 15.7109L12.1992 15.6719L12.1914 15.6484C12.1703 15.5864 12.1468 15.5251 12.1211 15.4648L12.1094 15.4414L12.1992 15.207L11.8437 15.2187L11.7461 15.2226C8.51953 15.2891 6.4375 13.918 6.4375 11.7695ZM8.46094 18.418C8.53516 18.1641 8.80078 18.0156 9.05469 18.0859C9.3125 18.1523 9.46484 18.4141 9.40234 18.6719L9.39844 18.6836L8.92578 20.4453L8.85938 20.418C8.57341 20.3113 8.29309 20.19 8.01953 20.0547L8.45703 18.4297L8.46094 18.418ZM11.1797 17.2266C11.2539 16.9726 11.5195 16.8242 11.7773 16.8945C11.8424 16.9123 11.903 16.9433 11.9554 16.9857C12.0079 17.028 12.051 17.0808 12.082 17.1406L12.0977 17.2109L12.1211 17.3242L12.1367 17.4062L12.1328 17.4258L12.1211 17.4805V17.4922L11.457 19.9531L11.4531 19.9648C11.414 20.0833 11.3309 20.1823 11.2211 20.2415C11.1112 20.3007 10.9828 20.3155 10.8624 20.2831C10.7419 20.2506 10.6384 20.1732 10.5732 20.0668C10.508 19.9604 10.486 19.833 10.5117 19.7109V19.6992L11.1758 17.2383L11.1797 17.2266ZM7.11719 14.4336L7.14844 14.3594C7.39453 14.5742 7.67969 14.7695 7.99219 14.9336L7.39062 17.168L7.38672 17.1797C7.34936 17.3009 7.26631 17.4028 7.15515 17.4638C7.044 17.5249 6.91345 17.5403 6.79114 17.5068C6.66883 17.4733 6.56434 17.3935 6.4998 17.2843C6.43526 17.1752 6.41572 17.0452 6.44531 16.9219L6.44922 16.9101L7.11328 14.4492L7.11719 14.4336ZM4.96875 11.8594C5.04297 11.6094 5.30859 11.4609 5.56641 11.5273C5.82031 11.5976 5.97266 11.8594 5.91016 12.1172V12.1289L5.24609 14.5898L5.24219 14.6016C5.20482 14.7227 5.12178 14.8246 5.01062 14.8857C4.89947 14.9467 4.76892 14.9621 4.64661 14.9286C4.5243 14.8951 4.41981 14.8154 4.35527 14.7062C4.29073 14.597 4.27119 14.4671 4.30078 14.3437V14.332L4.96484 11.8711L4.96875 11.8594ZM19.8594 11.3008C19.9336 11.0508 20.1992 10.9023 20.4531 10.9687C20.7109 11.0391 20.8633 11.3008 20.8008 11.5547V11.5703L20.1328 14.0312V14.043C20.0986 14.1683 20.016 14.275 19.9032 14.3394C19.7904 14.4039 19.6566 14.4209 19.5312 14.3867C19.4059 14.3525 19.2993 14.2699 19.2348 14.1571C19.1703 14.0443 19.1533 13.9105 19.1875 13.7851L19.1914 13.7734L19.8555 11.3125L19.8594 11.3008ZM3.07422 10.957C3.20652 9.80861 3.56074 8.69686 4.11719 7.68358C4.15673 7.6841 4.19608 7.68935 4.23438 7.69921C4.49219 7.76952 4.64453 8.03124 4.58203 8.28905L4.57812 8.30077L3.91406 10.7617L3.91016 10.7734C3.83594 11.0234 3.57031 11.1719 3.31641 11.1055C3.22266 11.0813 3.1383 11.0296 3.07422 10.957ZM18.1758 8.03124C18.2539 7.78124 18.5156 7.6328 18.7734 7.69921C19.0273 7.76952 19.1836 8.03124 19.1211 8.28905L19.1172 8.30077L18.4531 10.7617L18.4492 10.7734C18.4119 10.8946 18.3288 10.9965 18.2177 11.0576C18.1065 11.1186 17.976 11.134 17.8536 11.1005C17.7313 11.067 17.6268 10.9872 17.5623 10.8781C17.4978 10.7689 17.4782 10.6389 17.5078 10.5156L17.5117 10.5039L18.1758 8.04296V8.03124Z" fill="#FFFFFF"/>
<path d="M12.2344 9.30469C12.4001 9.30469 12.5591 9.37054 12.6763 9.48775C12.7935 9.60496 12.8594 9.76393 12.8594 9.92969C12.8594 10.0954 12.7935 10.2544 12.6763 10.3716C12.5591 10.4888 12.4001 10.5547 12.2344 10.5547C12.0686 10.5547 11.9096 10.4888 11.7924 10.3716C11.6752 10.2544 11.6094 10.0954 11.6094 9.92969C11.6094 9.76393 11.6752 9.60496 11.7924 9.48775C11.9096 9.37054 12.0686 9.30469 12.2344 9.30469Z" fill="#FFFFFF"/>
</svg>

<svg xmlns="http://www.w3.org/2000/svg" viewBox="0 0 24 24" fill="none"><path fill="#CFD8DC" fill-rule="evenodd" d="M12 22c5.523 0 10-4.477 10-10S17.523 2 12 2 2 6.477 2 12s4.477 10 10 10ZM6.437 11.77c0-2.278 2.266-4.11 5.172-4.11 1.399 0 2.598.387 3.543 1.125a5.035 5.035 0 0 1 1.7 2.477l.007.023.008.027.016.051.023.094.063.219.066.25.113.414.18.656.29 1.078.327 1.227.528 1.972.199.743-.043.047a8.977 8.977 0 0 1-5.442 2.843l-.019-.129-.035-.258-.031-.187-.036-.246-.046-.3-.02-.118-.043-.285-.027-.168-.035-.219-.036-.21-.035-.204-.035-.2-.031-.195-.035-.187-.032-.18-.023-.133-.027-.128-.016-.082-.031-.165-.024-.117-.027-.144-.023-.102-.02-.097-.02-.094-.011-.063-.028-.117-.02-.086-.019-.086-.015-.054-.02-.079-.015-.074-.02-.074-.02-.07-.011-.043-.02-.067-.015-.062-.012-.043-.016-.04-.011-.034-.016-.055-.012-.04-.008-.023a2.628 2.628 0 0 0-.07-.183l-.012-.024.09-.234-.355.012-.098.004c-3.226.066-5.309-1.305-5.309-3.454Zm2.024 6.648a.486.486 0 0 1 .594-.332c.258.066.41.328.347.586l-.004.012-.472 1.761-.067-.027a8.932 8.932 0 0 1-.84-.363l.438-1.625.004-.012Zm2.719-1.191a.488.488 0 0 1 .902-.086l.016.07.023.113.016.082-.004.02-.012.055v.011l-.664 2.461-.004.012a.488.488 0 0 1-.941-.254v-.012l.664-2.46.004-.012Zm-4.063-2.793.031-.075c.247.215.532.41.844.575l-.601 2.234-.004.012a.488.488 0 0 1-.942-.258l.004-.012.664-2.46.004-.016ZM4.97 11.859a.495.495 0 0 1 .597-.332c.254.07.407.332.344.59v.012l-.664 2.46-.004.013a.488.488 0 0 1-.941-.258v-.012l.664-2.46.004-.013Zm14.89-.558a.488.488 0 0 1 .941.254v.015l-.667 2.461v.012a.49.49 0 0 1-.945-.258l.003-.012.665-2.46.003-.012Zm-16.785-.344a8.922 8.922 0 0 1 1.043-3.273.49.49 0 0 1 .465.605l-.004.012-.664 2.46-.004.012a.492.492 0 0 1-.836.184Zm15.102-2.926a.496.496 0 0 1 .597-.332c.254.07.41.332.348.59l-.004.012-.664 2.46-.004.012a.488.488 0 0 1-.941-.257l.004-.012.664-2.461v-.012ZM7.008 5.36a.492.492 0 0 0-.594.332l-.004.012-.664 2.461-.004.012a.488.488 0 0 0 .942.258l.003-.012.665-2.461.003-.016a.488.488 0 0 0-.347-.586Zm8.535.465a.495.495 0 0 0-.598.332l-.004.012-.445 1.656c.289.142.565.31.824.5l.043.035.524-1.933v-.012a.491.491 0 0 0-.344-.59Zm-4.344-2.773a8.982 8.982 0 0 0-.93.133l-.066.011-.617 2.293-.004.012a.488.488 0 0 0 .941.254l.004-.012.664-2.46.004-.012a.484.484 0 0 0 .004-.22Zm6.11 1.699-.13.484-.003.012a.488.488 0 0 0 .941.254l.004-.012.016-.05a9.03 9.03 0 0 0-.77-.645l-.058-.043Zm-3.864-1.617-.234.87-.004.013a.488.488 0 0 0 .941.254l.004-.012.246-.918a8.924 8.924 0 0 0-.882-.195l-.07-.012Zm-.769 6.355a.625.625 0 1 0-.884.884.625.625 0 0 0 .884-.884Z" clip-rule="evenodd"/></svg>
